ui/StatusQ/src/assets/img/icons/muted.svg

<svg fill="none" height="17" viewBox="0 0 16 17" width="16" xmlns="http://www.w3.org/2000/svg"><g fill="#000"><path d="m9.70186 3.61736c.21359-.21359.19091-.56942-.07561-.71158-.48691-.25971-1.04146-.40578-1.62623-.40578-1.72139 0-3.18082 1.26576-3.42426 2.96984l-.43432 3.04021c-.02525.17679.29101.37672.41729.25044z"/><path d="m1.952 13.4879c-.2751.2941-.26921.7555.01767 1.0424.29289.2929.76777.2929 1.06066 0l1.88388-1.8839c.09377-.0937.22095-.1464.35356-.1464h.23223c.27614 0 .49359.2273.56171.4949.22026.8652 1.00455 1.5051 1.93829 1.5051s1.71803-.6399 1.93829-1.5051c.06811-.2676.28561-.4949.56171-.4949h2.0858c.8909 0 1.3371-1.0771.7071-1.7071l-.5858-.5858c-.459-.45899-.7567-1.05446-.8485-1.69705l-.3156-2.20951c-.0223-.15579.0301-.31298.1414-.42426l2.3459-2.34595c.2929-.29289.2929-.76777 0-1.06066-.2868-.28686-.7483-.29277-1.0423-.01772-.0058.00616-.0117.01225-.0177.01826l-10.99997 10.99999c-.00604.006-.01215.012-.01833.0177z"/></g></svg>

<svg width="16" height="17" viewBox="0 0 16 17" fill="none" xmlns="http://www.w3.org/2000/svg">
<path d="M9.70186 3.61736C9.91545 3.40377 9.89277 3.04794 9.62625 2.90578C9.13934 2.64607 8.58479 2.5 8.00002 2.5C6.27863 2.5 4.8192 3.76576 4.57576 5.46984L4.14144 8.51005C4.11619 8.68684 4.43245 8.88677 4.55873 8.76049L9.70186 3.61736Z" fill="black"/>
<path d="M1.952 13.4879C1.6769 13.782 1.68279 14.2434 1.96967 14.5303C2.26256 14.8232 2.73744 14.8232 3.03033 14.5303L4.91421 12.6464C5.00798 12.5527 5.13516 12.5 5.26777 12.5H5.5C5.77614 12.5 5.99359 12.7273 6.06171 12.9949C6.28197 13.8601 7.06626 14.5 8 14.5C8.93374 14.5 9.71803 13.8601 9.93829 12.9949C10.0064 12.7273 10.2239 12.5 10.5 12.5H12.5858C13.4767 12.5 13.9229 11.4229 13.2929 10.7929L12.7071 10.2071C12.2481 9.74811 11.9504 9.15264 11.8586 8.51005L11.543 6.30054C11.5207 6.14475 11.5731 5.98756 11.6844 5.87628L14.0303 3.53033C14.3232 3.23744 14.3232 2.76256 14.0303 2.46967C13.7435 2.18281 13.282 2.1769 12.988 2.45195C12.9822 2.45811 12.9763 2.4642 12.9703 2.47021L1.97033 13.4702C1.96429 13.4762 1.95818 13.4822 1.952 13.4879Z" fill="black"/>
</svg>
